images/5281034.svg

<?xml version="1.0" encoding="UTF-8"?>
<svg xmlns="http://www.w3.org/2000/svg" xmlns:xlink="http://www.w3.org/1999/xlink" width="300pt" height="300pt" viewBox="0 0 300 300" version="1.1">
<defs>
<g>
<symbol overflow="visible" id="glyph0-0">
<path style="stroke:none;" d="M 0.546875 1.9375 L 0.546875 -7.75 L 6.046875 -7.75 L 6.046875 1.9375 Z M 1.171875 1.328125 L 5.4375 1.328125 L 5.4375 -7.140625 L 1.171875 -7.140625 Z M 1.171875 1.328125 "/>
</symbol>
<symbol overflow="visible" id="glyph0-1">
<path style="stroke:none;" d="M 1.078125 -8.015625 L 2.171875 -8.015625 L 2.171875 -4.734375 L 6.109375 -4.734375 L 6.109375 -8.015625 L 7.1875 -8.015625 L 7.1875 0 L 6.109375 0 L 6.109375 -3.8125 L 2.171875 -3.8125 L 2.171875 0 L 1.078125 0 Z M 1.078125 -8.015625 "/>
</symbol>
<symbol overflow="visible" id="glyph0-2">
<path style="stroke:none;" d="M 4.328125 -7.28125 C 3.546875 -7.28125 2.921875 -6.984375 2.453125 -6.390625 C 1.992188 -5.804688 1.765625 -5.007812 1.765625 -4 C 1.765625 -2.988281 1.992188 -2.1875 2.453125 -1.59375 C 2.921875 -1.007812 3.546875 -0.71875 4.328125 -0.71875 C 5.117188 -0.71875 5.742188 -1.007812 6.203125 -1.59375 C 6.660156 -2.1875 6.890625 -2.988281 6.890625 -4 C 6.890625 -5.007812 6.660156 -5.804688 6.203125 -6.390625 C 5.742188 -6.984375 5.117188 -7.28125 4.328125 -7.28125 Z M 4.328125 -8.171875 C 5.453125 -8.171875 6.351562 -7.789062 7.03125 -7.03125 C 7.707031 -6.28125 8.046875 -5.269531 8.046875 -4 C 8.046875 -2.738281 7.707031 -1.726562 7.03125 -0.96875 C 6.351562 -0.21875 5.453125 0.15625 4.328125 0.15625 C 3.203125 0.15625 2.300781 -0.21875 1.625 -0.96875 C 0.957031 -1.71875 0.625 -2.726562 0.625 -4 C 0.625 -5.269531 0.957031 -6.28125 1.625 -7.03125 C 2.300781 -7.789062 3.203125 -8.171875 4.328125 -8.171875 Z M 4.328125 -8.171875 "/>
</symbol>
</g>
</defs>
<g id="surface49045">
<rect x="0" y="0" width="300" height="300" style="fill:rgb(100%,100%,100%);fill-opacity:1;stroke:none;"/>
<path style="fill:none;stroke-width:1;stroke-linecap:butt;stroke-linejoin:miter;stroke:rgb(0%,0%,0%);stroke-opacity:1;stroke-miterlimit:10;" d="M 91.136719 135.128906 L 91.136719 135.128906 M 90.546875 132.1875 L 89.574219 132.566406 M 89.953125 129.246094 L 88.011719 130.007812 M 89.359375 126.304688 L 86.449219 127.445312 M 88.769531 123.363281 L 84.886719 124.886719 M 88.175781 120.425781 L 83.320312 122.324219 M 87.582031 117.484375 L 81.757812 119.765625 M 86.992188 114.542969 L 80.195312 117.207031 M 86.398438 111.601562 L 78.632812 114.644531 M 85.804688 108.660156 L 77.070312 112.085938 M 85.5 107.148438 L 76.265625 110.765625 "/>
<path style="fill:none;stroke-width:1.2;stroke-linecap:butt;stroke-linejoin:miter;stroke:rgb(0%,0%,0%);stroke-opacity:1;stroke-miterlimit:10;" d="M 91.136719 135.128906 L 108.289062 112.859375 "/>
<path style="fill:none;stroke-width:1.2;stroke-linecap:butt;stroke-linejoin:miter;stroke:rgb(0%,0%,0%);stroke-opacity:1;stroke-miterlimit:10;" d="M 101.847656 161.117188 L 91.136719 135.128906 "/>
<path style="fill:none;stroke-width:1.2;stroke-linecap:butt;stroke-linejoin:miter;stroke:rgb(0%,0%,0%);stroke-opacity:1;stroke-miterlimit:10;" d="M 63.113281 137.285156 L 91.136719 135.128906 "/>
<path style="fill:none;stroke-width:1.2;stroke-linecap:butt;stroke-linejoin:miter;stroke:rgb(0%,0%,0%);stroke-opacity:1;stroke-miterlimit:10;" d="M 108.289062 112.859375 L 136.152344 116.574219 "/>
<path style="fill:none;stroke-width:1;stroke-linecap:butt;stroke-linejoin:miter;stroke:rgb(0%,0%,0%);stroke-opacity:1;stroke-miterlimit:10;" d="M 146.863281 142.5625 L 146.863281 142.5625 M 146.21875 139.632812 L 145.253906 140.03125 M 145.574219 136.703125 L 143.648438 137.5 M 144.929688 133.773438 L 142.039062 134.964844 M 144.289062 130.84375 L 140.429688 132.433594 M 143.644531 127.914062 L 138.824219 129.902344 M 143 124.984375 L 137.214844 127.367188 M 142.355469 122.054688 L 135.609375 124.835938 M 141.710938 119.125 L 134 122.300781 M 141.070312 116.191406 L 132.390625 119.769531 M 140.738281 114.6875 L 131.566406 118.464844 "/>
<path style="fill:none;stroke-width:1.2;stroke-linecap:butt;stroke-linejoin:miter;stroke:rgb(0%,0%,0%);stroke-opacity:1;stroke-miterlimit:10;" d="M 146.863281 142.5625 L 129.710938 164.835938 "/>
<path style="fill:none;stroke-width:1.2;stroke-linecap:butt;stroke-linejoin:miter;stroke:rgb(0%,0%,0%);stroke-opacity:1;stroke-miterlimit:10;" d="M 174.722656 146.28125 L 146.863281 142.5625 "/>
<path style="fill:none;stroke-width:1.2;stroke-linecap:butt;stroke-linejoin:miter;stroke:rgb(0%,0%,0%);stroke-opacity:1;stroke-miterlimit:10;" d="M 129.710938 164.835938 L 101.847656 161.117188 "/>
<path style=" stroke:none;fill-rule:nonzero;fill:rgb(0%,0%,0%);fill-opacity:1;" d="M 129.710938 164.835938 L 135.835938 192.714844 L 145.007812 188.933594 Z M 129.710938 164.835938 "/>
<path style="fill:none;stroke-width:1;stroke-linecap:butt;stroke-linejoin:miter;stroke:rgb(0%,0%,0%);stroke-opacity:1;stroke-miterlimit:10;" d="M 101.847656 161.117188 L 101.847656 161.117188 M 99.261719 162.632812 L 99.9375 163.429688 M 96.675781 164.152344 L 98.027344 165.742188 M 94.085938 165.667969 L 96.113281 168.050781 M 91.5 167.1875 L 94.203125 170.363281 M 88.910156 168.707031 L 92.289062 172.675781 M 86.324219 170.222656 L 90.378906 174.988281 M 83.734375 171.742188 L 88.464844 177.300781 M 81.148438 173.257812 L 86.554688 179.609375 M 78.558594 174.777344 L 84.640625 181.921875 M 77.226562 175.558594 L 83.65625 183.113281 "/>
<path style="fill:none;stroke-width:1.2;stroke-linecap:butt;stroke-linejoin:miter;stroke:rgb(0%,0%,0%);stroke-opacity:1;stroke-miterlimit:10;" d="M 80.441406 179.335938 L 56.503906 164.605469 "/>
<path style="fill:none;stroke-width:1.2;stroke-linecap:butt;stroke-linejoin:miter;stroke:rgb(0%,0%,0%);stroke-opacity:1;stroke-miterlimit:10;" d="M 56.503906 164.605469 L 63.113281 137.285156 "/>
<path style=" stroke:none;fill-rule:nonzero;fill:rgb(0%,0%,0%);fill-opacity:1;" d="M 63.113281 137.285156 L 35.90625 128.648438 L 34.59375 138.484375 Z M 63.113281 137.285156 "/>
<path style="fill:none;stroke-width:1.2;stroke-linecap:butt;stroke-linejoin:miter;stroke:rgb(0%,0%,0%);stroke-opacity:1;stroke-miterlimit:10;" d="M 63.113281 137.285156 L 61.789062 123.292969 "/>
<path style="fill:none;stroke-width:1.2;stroke-linecap:butt;stroke-linejoin:miter;stroke:rgb(100%,0%,0%);stroke-opacity:1;stroke-miterlimit:10;" d="M 61.789062 123.292969 L 60.464844 109.300781 "/>
<path style=" stroke:none;fill-rule:nonzero;fill:rgb(100%,100%,100%);fill-opacity:1;" d="M 52.464844 102.800781 L 69.464844 102.800781 L 69.464844 115.800781 L 52.464844 115.800781 Z M 52.464844 102.800781 "/>
<g style="fill:rgb(100%,0%,0%);fill-opacity:1;">
  <use xlink:href="#glyph0-1" x="52.464844" y="112.702148"/>
  <use xlink:href="#glyph0-2" x="60.489258" y="112.702148"/>
</g>
<path style="fill:none;stroke-width:1.2;stroke-linecap:butt;stroke-linejoin:miter;stroke:rgb(0%,0%,0%);stroke-opacity:1;stroke-miterlimit:10;" d="M 140.421875 190.824219 L 168.285156 194.539062 "/>
<path style="fill:none;stroke-width:1;stroke-linecap:butt;stroke-linejoin:miter;stroke:rgb(0%,0%,0%);stroke-opacity:1;stroke-miterlimit:10;" d="M 185.4375 172.269531 L 185.4375 172.269531 M 183.21875 174.292969 L 184.046875 174.929688 M 181.003906 176.316406 L 182.65625 177.585938 M 178.789062 178.339844 L 181.265625 180.246094 M 176.574219 180.359375 L 179.878906 182.90625 M 174.355469 182.382812 L 178.488281 185.5625 M 172.140625 184.40625 L 177.097656 188.222656 M 169.925781 186.429688 L 175.707031 190.882812 M 167.710938 188.449219 L 174.320312 193.539062 M 165.496094 190.472656 L 172.929688 196.199219 M 164.355469 191.515625 L 172.214844 197.566406 "/>
<path style="fill:none;stroke-width:1.2;stroke-linecap:butt;stroke-linejoin:miter;stroke:rgb(0%,0%,0%);stroke-opacity:1;stroke-miterlimit:10;" d="M 185.4375 172.269531 L 174.722656 146.28125 "/>
<path style="fill:none;stroke-width:1.2;stroke-linecap:butt;stroke-linejoin:miter;stroke:rgb(0%,0%,0%);stroke-opacity:1;stroke-miterlimit:10;" d="M 213.296875 175.988281 L 185.4375 172.269531 "/>
<path style="fill:none;stroke-width:1.2;stroke-linecap:butt;stroke-linejoin:miter;stroke:rgb(0%,0%,0%);stroke-opacity:1;stroke-miterlimit:10;" d="M 174.722656 146.28125 L 191.875 124.011719 "/>
<path style="fill:none;stroke-width:1;stroke-linecap:butt;stroke-linejoin:miter;stroke:rgb(0%,0%,0%);stroke-opacity:1;stroke-miterlimit:10;" d="M 174.722656 146.28125 L 174.722656 146.28125 M 174.082031 143.351562 L 173.117188 143.75 M 173.4375 140.421875 L 171.507812 141.214844 M 172.792969 137.492188 L 169.902344 138.683594 M 172.148438 134.5625 L 168.292969 136.152344 M 171.503906 131.632812 L 166.683594 133.617188 M 170.863281 128.703125 L 165.078125 131.085938 M 170.21875 125.769531 L 163.46875 128.550781 M 169.574219 122.839844 L 161.863281 126.019531 M 168.929688 119.910156 L 160.253906 123.488281 M 168.597656 118.402344 L 159.425781 122.183594 "/>
<path style="fill:none;stroke-width:1.2;stroke-linecap:butt;stroke-linejoin:miter;stroke:rgb(0%,0%,0%);stroke-opacity:1;stroke-miterlimit:10;" d="M 191.875 124.011719 L 219.738281 127.730469 "/>
<path style="fill:none;stroke-width:1.2;stroke-linecap:butt;stroke-linejoin:miter;stroke:rgb(0%,0%,0%);stroke-opacity:1;stroke-miterlimit:10;" d="M 219.738281 127.730469 L 236.886719 105.460938 "/>
<path style="fill:none;stroke-width:1.2;stroke-linecap:butt;stroke-linejoin:miter;stroke:rgb(0%,0%,0%);stroke-opacity:1;stroke-miterlimit:10;" d="M 226.691406 129.539062 L 240.414062 111.722656 "/>
<path style="fill:none;stroke-width:1.2;stroke-linecap:butt;stroke-linejoin:miter;stroke:rgb(0%,0%,0%);stroke-opacity:1;stroke-miterlimit:10;" d="M 219.738281 127.730469 L 230.449219 153.71875 "/>
<path style="fill:none;stroke-width:1.2;stroke-linecap:butt;stroke-linejoin:miter;stroke:rgb(0%,0%,0%);stroke-opacity:1;stroke-miterlimit:10;" d="M 236.886719 105.460938 L 250.820312 107.316406 "/>
<path style="fill:none;stroke-width:1.2;stroke-linecap:butt;stroke-linejoin:miter;stroke:rgb(100%,0%,0%);stroke-opacity:1;stroke-miterlimit:10;" d="M 250.820312 107.316406 L 264.75 109.175781 "/>
<path style=" stroke:none;fill-rule:nonzero;fill:rgb(100%,100%,100%);fill-opacity:1;" d="M 256.75 102.675781 L 273.75 102.675781 L 273.75 115.675781 L 256.75 115.675781 Z M 256.75 102.675781 "/>
<g style="fill:rgb(100%,0%,0%);fill-opacity:1;">
  <use xlink:href="#glyph0-2" x="256.75" y="112.577148"/>
  <use xlink:href="#glyph0-1" x="265.150391" y="112.577148"/>
</g>
<path style="fill:none;stroke-width:1.2;stroke-linecap:butt;stroke-linejoin:miter;stroke:rgb(0%,0%,0%);stroke-opacity:1;stroke-miterlimit:10;" d="M 230.011719 156.996094 L 243.941406 158.855469 "/>
<path style="fill:none;stroke-width:1.2;stroke-linecap:butt;stroke-linejoin:miter;stroke:rgb(100%,0%,0%);stroke-opacity:1;stroke-miterlimit:10;" d="M 243.941406 158.855469 L 257.875 160.714844 "/>
<path style="fill:none;stroke-width:1.2;stroke-linecap:butt;stroke-linejoin:miter;stroke:rgb(0%,0%,0%);stroke-opacity:1;stroke-miterlimit:10;" d="M 230.886719 150.441406 L 244.816406 152.300781 "/>
<path style="fill:none;stroke-width:1.2;stroke-linecap:butt;stroke-linejoin:miter;stroke:rgb(100%,0%,0%);stroke-opacity:1;stroke-miterlimit:10;" d="M 244.816406 152.300781 L 258.746094 154.15625 "/>
<path style="fill:none;stroke-width:1.2;stroke-linecap:butt;stroke-linejoin:miter;stroke:rgb(0%,0%,0%);stroke-opacity:1;stroke-miterlimit:10;" d="M 230.449219 153.71875 L 213.296875 175.988281 "/>
<path style=" stroke:none;fill-rule:nonzero;fill:rgb(100%,100%,100%);fill-opacity:1;" d="M 254.308594 150.9375 L 263.308594 150.9375 L 263.308594 163.9375 L 254.308594 163.9375 Z M 254.308594 150.9375 "/>
<g style="fill:rgb(100%,0%,0%);fill-opacity:1;">
  <use xlink:href="#glyph0-2" x="254.308594" y="160.838867"/>
</g>
</g>
</svg>

<svg xmlns="http://www.w3.org/2000/svg" xmlns:xlink="http://www.w3.org/1999/xlink" width="300pt" height="300pt" viewBox="0 0 300 300"><defs><symbol overflow="visible"><path d="M.547 1.938V-7.75h5.5v9.688zm.625-.61h4.266v-8.47H1.171zm0 0"/></symbol><symbol overflow="visible" id="a"><path d="M1.078-8.016h1.094v3.282H6.11v-3.282h1.077V0H6.11v-3.813H2.17V0H1.078zm0 0"/></symbol><symbol overflow="visible" id="b"><path d="M4.328-7.28c-.78 0-1.406.296-1.875.89-.46.585-.687 1.382-.687 2.39 0 1.012.226 1.813.687 2.406.47.586 1.094.875 1.875.875.79 0 1.414-.288 1.875-.874.457-.593.688-1.394.688-2.406 0-1.008-.23-1.805-.687-2.39-.46-.594-1.086-.89-1.875-.89zm0-.892c1.125 0 2.024.383 2.703 1.14C7.708-6.28 8.048-5.27 8.048-4c0 1.262-.34 2.273-1.016 3.03C6.353-.22 5.454.157 4.33.157S2.3-.22 1.625-.97c-.668-.75-1-1.757-1-3.03 0-1.27.332-2.28 1-3.03.676-.76 1.578-1.142 2.703-1.142zm0 0"/></symbol></defs><g><path fill="#fff" d="M0 0h300v300H0z"/><path d="M91.137 135.13m-.59-2.942l-.973.378m.38-3.32l-1.942.762m1.347-3.703l-2.91 1.14m2.32-4.082l-3.883 1.524m3.29-4.46l-4.857 1.897m4.262-4.84l-5.824 2.282m5.234-5.223l-6.797 2.664m6.203-5.605l-7.765 3.043m7.172-5.985l-8.735 3.426m8.43-4.938l-9.234 3.618" stroke="#000" stroke-miterlimit="10" fill="none"/><path d="M91.137 135.13l17.152-22.27M101.848 161.117l-10.71-25.988M63.113 137.285l28.024-2.156M108.29 112.86l27.862 3.714" stroke-width="1.2" stroke="#000" stroke-miterlimit="10" fill="none"/><path d="M146.863 142.563m-.644-2.93l-.966.398m.32-3.327l-1.926.797m1.282-3.727l-2.89 1.192m2.25-4.12l-3.86 1.59m3.215-4.52l-4.82 1.987m4.175-4.918l-5.785 2.383m5.14-5.312l-6.746 2.78m6.1-5.71L134 122.3m7.07-6.11l-8.68 3.58m8.348-5.082l-9.172 3.777" stroke="#000" stroke-miterlimit="10" fill="none"/><path d="M146.863 142.563l-17.152 22.273M174.723 146.28l-27.86-3.718M129.71 164.836l-27.862-3.72" stroke-width="1.2" stroke="#000" stroke-miterlimit="10" fill="none"/><path d="M129.71 164.836l6.126 27.88 9.172-3.782zm0 0"/><path d="M101.848 161.117m-2.586 1.516l.675.797m-3.26.722l1.35 1.59m-3.94-.074l2.026 2.383m-4.613-.863l2.703 3.176m-5.293-1.656l3.38 3.97m-5.966-2.454l4.055 4.765m-6.646-3.246l4.73 5.56m-7.316-4.044l5.407 6.35m-7.996-4.83l6.08 7.144m-7.413-6.363l6.43 7.553" stroke="#000" stroke-miterlimit="10" fill="none"/><path d="M80.44 179.336l-23.936-14.73M56.504 164.605l6.61-27.32" stroke-width="1.2" stroke="#000" stroke-miterlimit="10" fill="none"/><path d="M63.113 137.285l-27.207-8.637-1.312 9.836zm0 0"/><path d="M63.113 137.285l-1.324-13.992" stroke-width="1.2" stroke="#000" stroke-miterlimit="10" fill="none"/><path d="M61.79 123.293L60.464 109.3" stroke-width="1.2" stroke="#f00" stroke-miterlimit="10" fill="none"/><path d="M52.465 102.8h17v13h-17zm0 0" fill="#fff"/><g fill="#f00"><use xlink:href="#a" x="52.465" y="112.702"/><use xlink:href="#b" x="60.489" y="112.702"/></g><path d="M140.422 190.824l27.863 3.715" stroke-width="1.2" stroke="#000" stroke-miterlimit="10" fill="none"/><path d="M185.438 172.27m-2.22 2.023l.83.637m-3.044 1.386l1.652 1.27m-3.867.754l2.476 1.906m-4.692.113l3.305 2.546m-5.525-.523l4.133 3.18m-6.347-1.157l4.958 3.817m-7.172-1.793l5.78 4.453m-7.995-2.434l6.61 5.09m-8.824-3.067l7.434 5.726m-8.575-4.684l7.86 6.05" stroke="#000" stroke-miterlimit="10" fill="none"/><path d="M185.438 172.27l-10.715-25.99M213.297 175.988l-27.86-3.718M174.723 146.28l17.152-22.268" stroke-width="1.2" stroke="#000" stroke-miterlimit="10" fill="none"/><path d="M174.723 146.28m-.64-2.928l-.966.398m.32-3.328l-1.93.793m1.286-3.723l-2.89 1.192m2.245-4.12l-3.855 1.588m3.21-4.52l-4.82 1.985m4.18-4.914l-5.785 2.383m5.14-5.316l-6.75 2.78m6.106-5.71l-7.71 3.18m7.066-6.11l-8.676 3.578m8.344-5.086l-9.172 3.782" stroke="#000" stroke-miterlimit="10" fill="none"/><path d="M191.875 124.012l27.863 3.718M219.738 127.73l17.15-22.27M226.69 129.54l13.724-17.817M219.738 127.73l10.71 25.99M236.887 105.46l13.933 1.856" stroke-width="1.2" stroke="#000" stroke-miterlimit="10" fill="none"/><path d="M250.82 107.316l13.93 1.86" stroke-width="1.2" stroke="#f00" stroke-miterlimit="10" fill="none"/><path d="M256.75 102.676h17v13h-17zm0 0" fill="#fff"/><g fill="#f00"><use xlink:href="#b" x="256.75" y="112.577"/><use xlink:href="#a" x="265.15" y="112.577"/></g><path d="M230.012 156.996l13.93 1.86" stroke-width="1.2" stroke="#000" stroke-miterlimit="10" fill="none"/><path d="M243.94 158.855l13.935 1.86" stroke-width="1.2" stroke="#f00" stroke-miterlimit="10" fill="none"/><path d="M230.887 150.44l13.93 1.86" stroke-width="1.2" stroke="#000" stroke-miterlimit="10" fill="none"/><path d="M244.816 152.3l13.93 1.856" stroke-width="1.2" stroke="#f00" stroke-miterlimit="10" fill="none"/><path d="M230.45 153.72l-17.153 22.268" stroke-width="1.2" stroke="#000" stroke-miterlimit="10" fill="none"/><path d="M254.31 150.938h9v13h-9zm0 0" fill="#fff"/><use xlink:href="#b" x="254.309" y="160.839" fill="#f00"/></g></svg>
